app/assets/img/ic-search-blue.svg

<svg fill="none" height="22" viewBox="0 0 22 22" width="22" xmlns="http://www.w3.org/2000/svg"><path clip-rule="evenodd" d="m10.0091 19.5781c-5.28487 0-9.569098-4.2842-9.569098-9.5691 0-5.28483 4.284228-9.569059 9.569098-9.569059 5.2849 0 9.5691 4.284229 9.5691 9.569059 0 2.2113-.7501 4.2475-2.0097 5.8678l3.9915 3.9915-1.6916 1.6916-3.9915-3.9915c-1.6204 1.2596-3.6565 2.0097-5.8678 2.0097zm7.1768-9.5691c0 3.9637-3.2132 7.1768-7.1768 7.1768-3.96365 0-7.17682-3.2131-7.17682-7.1768 0-3.96362 3.21317-7.17679 7.17682-7.17679 3.9636 0 7.1768 3.21317 7.1768 7.17679z" fill="#276ce5" fill-rule="evenodd"/></svg>

<svg width="22" height="22" viewBox="0 0 22 22" fill="none" xmlns="http://www.w3.org/2000/svg">
<path fill-rule="evenodd" clip-rule="evenodd" d="M10.0091 19.5781C4.72423 19.5781 0.440002 15.2939 0.440002 10.009C0.440002 4.72417 4.72423 0.439941 10.0091 0.439941C15.294 0.439941 19.5782 4.72417 19.5782 10.009C19.5782 12.2203 18.8281 14.2565 17.5685 15.8768L21.56 19.8683L19.8684 21.5599L15.8769 17.5684C14.2565 18.828 12.2204 19.5781 10.0091 19.5781ZM17.1859 10.009C17.1859 13.9727 13.9727 17.1858 10.0091 17.1858C6.04545 17.1858 2.83228 13.9727 2.83228 10.009C2.83228 6.04538 6.04545 2.83221 10.0091 2.83221C13.9727 2.83221 17.1859 6.04538 17.1859 10.009Z" fill="#276CE5"/>
</svg>
